sliced-svg/output/0096-sitelen.svg

<?xml version="1.0" encoding="UTF-8"?><svg xmlns="http://www.w3.org/2000/svg" xmlns:xlink="http://www.w3.org/1999/xlink" width="1000px" height="1000px" version="1.1"><g id="surface1"><path style="fill:none;stroke-width:1;stroke-linecap:round;stroke-linejoin:round;stroke:rgb(0%,0%,0%);stroke-opacity:1;stroke-miterlimit:4" d="M 126 185.000078 L 134 185.000078 L 134 195.000078 L 126 195.000078 Z M 126 185.000078 " transform="matrix(50,0,0,50,-6000,-9000)"/><path style="stroke:none;fill-rule:nonzero;fill:rgb(0%,0%,0%);fill-opacity:1" d="M550 500C550 527.613281 527.613281 550 500 550 472.386719 550 450 527.613281 450 500 450 472.386719 472.386719 450 500 450 527.613281 450 550 472.386719 550 500zM437.5 500C437.5 527.613281 415.113281 550 387.5 550 359.886719 550 337.5 527.613281 337.5 500 337.5 472.386719 359.886719 450 387.5 450 415.113281 450 437.5 472.386719 437.5 500zM662.5 500C662.5 527.613281 640.113281 550 612.5 550 584.886719 550 562.5 527.613281 562.5 500 562.5 472.386719 584.886719 450 612.5 450 640.113281 450 662.5 472.386719 662.5 500zM662.5 500"/></g></svg>

<svg xmlns="http://www.w3.org/2000/svg" width="1000" height="1000"><defs/><path d="M300 250.004h400v500H300zm0 0" fill="none" stroke-linecap="round" stroke-linejoin="round" stroke="#000" stroke-width="50"/><path d="M550 500c0 27.613-22.387 50-50 50s-50-22.387-50-50 22.387-50 50-50 50 22.387 50 50zm-112.5 0c0 27.613-22.387 50-50 50s-50-22.387-50-50 22.387-50 50-50 50 22.387 50 50zm225 0c0 27.613-22.387 50-50 50s-50-22.387-50-50 22.387-50 50-50 50 22.387 50 50zm0 0"/></svg>
